X:3
%%scale 0.63
T:Vidi
C:Michael East
%%score [1 | 2 |3 |4 |5]
M:4/2
L:1/4
K:C
V:1 name="Treble I"
z8 | z4 z2 z A | c B A/B/c/d/ e2 f d | ^c d2 c d>e f d-|d c/d/ e2 e>d c2|
B A G E F2 F2-|F G A3/2 G//F// E2 z2 | z8 | z d f e d/e/f/g/ a2 | z e f d c/B/c/d/ e c |
B2 z A c B A/B/c/d/ | e/f/ g f e2 a2 ^g |a2 A2 z4 |z4 z A c B | A/B/c/d/ e2 f e/d/ ^c e-|
e d2 ^c d B =c2 | B c/d/ e2 e>d c2 | B A G2 F/G/ A>B c |d A A2 z4 | !longphrase!z4 z a2 g-| 
g f e2 f f2 e-|e d2 ^c d4-| d2 c _B A2 G2 | z2 d2 a4-|a2 g2 f2 e2-|
e2 d2 ^c4 | d e f4 e2 | f8 | z4 d4 | c4 _B4 | A8-|A4 !mediumphrase!A A d>d |
d d d2 z G B>B | B B B2 c3 c | B2 G2 G4 | z2 z d g f e a | g f e a g g2 ^f |
g2 z2 z4 | z2 z c B e d c | B c d2 !mediumphrase!e2 e2 | f4 d4 | _e4 d4-| d2 =B2 c4-|
c4 _B4 | A8 | !mediumphrase!A2 A2 d4 | e4 z4 | B2 ^G3 A G2 | B4 A3 A | ^F2 B2 B4-|
B4 ^G4 | E2 e3 d B2 | c2 A2 B3 A | ^G2 A4 G2 | A2 z e>e e e2 | e>d c2 B3 d-|
d g>g e2 ^d !mediumphrase!e e | e e c>B A A>Bc/d/ | e4 A2 c _B | A4 A2 z2 | z a a a a>g f d |
A4 z c c c | c>B A G/F/ E2 z e |e e c>B A4 | HA8 |]
V:2 name="Treble II"
Z4 | z A c B A/B/c/d/ e2-|e d2 ^c d A2 a-|a g f3/2 e//d// ^c>d e/f/ g |a2 A2 A A>B c |
d2 z2 z2 z e | f e d/e/f/g/ a2 A2 | z8| z4 z A c B | A3 E F/G/A/B/ c/d/ e-|
e d2 ^c d2 e2 | e2 z2 z4 | z8| z A c  B A/B/c/d/ e2-| e d2 ^c d3 e | f2 e2 d/e/ f e f-|f e !longphrase! f2  z f2 e-|
e d ^c2 d =c2 _B | A4 A4-|A4 z2 c2 | f4 e4 | d2 d4 ^c2-|c2 f2 e4 |
d2 c2 _B4 | A3 _B c A d2 |c2 g4 f2-|f2 e4 d2-| d ^c f2 e2 d2-|d2 ^c2 d3 !mediumphrase!y A|
B>B B B B G d>d | d d g>g g g c2 | z4 z2 z G | g>g g g e a g f |
e a g f e2 d c | B2 z2 z4 | z d B e d c B e | d c2 B c4-|
c4 z2 F2 | c3 _B A G A2 | B2 d2 e2 e2 |f4 e2 d2 | ^c2 d4 c2 | !mediumphrase!d2 d2 B3 B|
B8 | z8 | z2 e2 c3 c | B2 e2 ^d2 e2 | g2 ^f2 e3 d | B2 c2 B4 |
A4 z2 f2 | e3 e e4 | e2 z2 z4 | z4 z e2 ^f-|f e>d c B B B>B|
c A3/2 B/c/d/ e2 z2 | z8 | z a a a a>g f e/d/ |^c d2 c d2 z d |
d d d2 !mediumphrase!e a a a| a>g f e/d/ ^c e e>d | c/B/A/B/ c>d e f e2 | Hd8 |]
V:3 name="Tenor I" clef=alto middle=c octave=-1
d2 f e d/e/f/g/ a2 |g2 c'3/2 b//a// g/e/f/d/ e2-|e d c/d/ e>f g f g-|g f e2 d a2 a |^g a2 g a4 |
z8| z4 z A c B | A/B/c/d/ e2 f/e/f/g/ a2 |d2 z e a3/2 g//f// e A | a2 z d f e c/d/e/f/ |
g2 e a2 ^g a2 | "\="g d c2 B A e2 | e ^c>d e a f g2-|g f e2 d a2 ^g | a A/B/ c2 d _B A2 |
A2 z e f d c/d/e/^f/ |^g a2 g a4 | g f e2 d2 z2 | z2 z a f/g/ a2 a |_b2 !longphrase! c'2 z c'2 c'-|
c' a a2 _b a2 g-|g f e2 ^f4 | z2 a2 c'4 | _b2 a4 e2 | f3 g a4-|a4 z2 a2 |
f4 g4 | a c'2 _b a2 f2-|f2 g a _b2 a2-|a2 g4 g>f |e2 d3 ^c f2 | e4 ^f4 |
z2 z d g>g g g | G4 z c g>g| g g g c B e d c | B e d2 c c c'>c' |c'c' c'2 z4 |
z b g c' b a g c' | b2 z2 z2 z G | g>g g g !mediumphrase!g2 g2 | a2 a2 _b4 | a2 g4 ^f2 |
g8 | a4 g4 | e2 f d a>_b a g | ^f4 z2 b2 | ^g3 g ^f4-|f2 e2 e4 | z4 c'2 a2-|
a a g2 ^f2 e2-|e2 ^c2 e3 ^f | g2 a2 b2 e2-|e2 c'2 b c' d'2-|d'2 c'2 b3 b |a2 z ^g>g a g g |
c' b a2 ^g2 =g b-|b g3/2 b/a/g/ ^f/e/ f ^g2 | !mediumphrase!a c' c' c' c'>b a g/f/ | e4 f2 g g-|g/g/ f e2 f>g a _b|
a2 a2 !mediumphrase!f a a a | a>g f e/d/ ^c e e>d | c/B/A/B/ c>d !mediumphrase!e c'c'c' |c'> b a g/f/ e d e2 | H^f8 |]
V:4 name="Tenor II" clef=alto middle=c octave=-1
z4 z2 z A| c B A/B/c/d/e d2 c-|c G A>B c2 d _B|A2 A>G F>E D F |E4 A3 a|
g f e A d3 A-| A/B/ ^c d2 z4 |z4 z d f e | d/e/f/g/ a>g f/e/ d2 ^c |d c _B2 A4 |
z2 z d e>d c2 | G2 A e/f/ g c z2 | z4 z2 z B | ^c d A e f d z B | c/d/ e>f g f g2 ^c-|
c f e A F G A/B/=c/d/ |e2 e>d c/B/ A z2 | z4 z F A G | F/G/A/B/ c2 d A>B c | _B2 !longphrase!A2 z f2 c-|
c d A2 z2 z g | ^c d e2 !mediumphrase!d2 d2 |f6 e2 | d6 ^c2 |d2 _B2 A4-|A8 |
_B2 A2 G4 | F3 G A F _B2 | A2 G2 d4 | A2 c2 G4 | A8-|A4 A4 |
z G d>d d d d d | g>g g g e4 | d d B e d c B e | d c2 B c4-| c4 c2 B A | 
G G c>c d2 e c | d2 z G g>g g g |G4 !mediumphrase!c2 c2 | f4 _B4 | c2 c2 d4 |
G4 z4 | z2 c2 g4-|g2 f2 e4 | d4 z2 g2 | e3 e ^d4-|d2 B3 c B2 | e8|
^d2 B2 B4-|B4 B2 e2-|e2 A2 e4 | A2 a g f e d c | B2 A2 B4 | ^c2 z B>B =c B B |
c/d/ e e2 e2 e B-|B c>G A B2 e2 |A2 z2 z2 z a | a a a>g f e/d/ e d | ^c d2 c d2 d g-|
g/g/ f e2 !mediumphrase!d f f f | f>e d ^c/B/ A =c c>B|A/G/F/G/ A2 z a a a | a>g f e/d/ ^c d2 c | Hd8|]
V:5 clef=bass name=Bass middle=d octave=-2
Z5 | z4 z2 z d  |f e d/e/f/g/ a3 g |f e/d/ ^c2 d3 =c |
_B2 A2 z4 | z8| z e g f e2 a A| c B A/B/c/d/ e f e>d |
^c A>B c d d' c' g | a4 d f e2 |A2 z2 z4 | z8|
z8 | z4 z d f e | d/e/f/g/ a2 _b f a2 | g2  !longphrase! f2 z4 |
z4 _b f2 g | a4 d4 | Z9 | z2 A2 d>d d d |g>g g g G4 |
z2 z g c'>c' c' c|g8-|g4 c4 |z8| z g e a g f e a |
g4 G4 |Z3 | z2 g2 c'4 | f4 g2 g2 |
a8| z8 | z2 e2 B3 B | B2 e4 e2 | ^G3 G A4 |
B6 G2 | B4 e4 | z2 a4 ^g2 | a4 d4 |
e8| A2 z e>e c e e | a ^g a2 e2 z2 | z8|
z a a a a>g f e/d/ | ^c4 d2 =c G | A4 d>e f g |a4 d4-|
d4 a4 | A8 | A8 | Hd8|]

